gama.ui.shared/icons_svg/dark/generic/menu.save.svg

<svg height="25" viewBox="-382.774 -3167.932 25 25" width="25" xmlns="http://www.w3.org/2000/svg"><g fill="none"><path d="m-378.4341-3167.4315h16.32c2.12077 0 3.84 1.7192 3.84 3.84v16.32c0 2.1208-1.71923 3.84-3.84 3.84h-16.32c-2.12077 0-3.84-1.7192-3.84-3.84v-16.32c0-2.1208 1.71923-3.84 3.84-3.84z" fill="#666"/><path d="m-378.4341-3167.4315h16.32c2.12077 0 3.84 1.7192 3.84 3.84v16.32c0 2.1208-1.71923 3.84-3.84 3.84h-16.32c-2.12077 0-3.84-1.7192-3.84-3.84v-16.32c0-2.1208 1.71923-3.84 3.84-3.84z" stroke="#fff" stroke-linecap="round" stroke-linejoin="round" stroke-width=".25"/><path d="m-376.2742-3152.232c.2209 0 .4.179.4.4v2.4006c0 .6627.5372 1.1999 1.19992 1.1999h8.79955c.66273 0 1.19993-.5372 1.19993-1.1999v-9.9996h-2.79984c-.22091 0-.39998-.179-.39998-.4v-2.7997h-6.79966c-.66272 0-1.19992.5372-1.19992 1.1999v1.5991c0 .2209-.1791.4-.4.4s-.39997-.1791-.39997-.4v-1.5991c0-1.1045.89537-1.9999 1.99989-1.9999h7.17725c.1062-.0067.21673.0287.30523.1171l3.1998 3.1999c.0885.0885.1239.199.11717.3052v10.3771c0 1.1044-.89537 1.9999-1.9999 1.9999h-8.79955c-1.10452 0-1.99989-.8955-1.99989-1.9999v-2.4006c0-.221.17907-.4.39997-.4zm9.19953-9.833v1.834h1.83423zm-2.96553 5.833-1.71707-1.717c-.1562-.156-.1562-.4094 0-.5656s.40947-.1562.56567 0l2.39987 2.3999c.1562.1562.1562.4094 0 .5657l-2.39987 2.4c-.1562.156-.40947.156-.56567 0-.1562-.1564-.1562-.4096 0-.566l1.71707-1.717h-6.234c-.2209 0-.39997-.179-.39997-.4 0-.2208.17907-.4.39997-.4z" fill="#8eed62"/></g></svg>

<?xml version="1.0" encoding="UTF-8" standalone="no"?>
<!DOCTYPE svg PUBLIC "-//W3C//DTD SVG 1.1//EN" "http://www.w3.org/Graphics/SVG/1.1/DTD/svg11.dtd">
<svg xmlns="http://www.w3.org/2000/svg" xmlns:xl="http://www.w3.org/1999/xlink" version="1.1" xmlns:dc="http://purl.org/dc/elements/1.1/" viewBox="-382.7741 -3167.9315 25 25" width="25" height="25">
  <defs/>
  <g id="SOURCES" stroke-opacity="1" fill="none" stroke="none" fill-opacity="1" stroke-dasharray="none">
    <title>SOURCES</title>
    <g id="SOURCES_Dark">
      <title>Dark</title>
      <g id="Graphic_11739">
        <title>views/view.other</title>
        <path d="M -378.4341 -3167.4315 L -362.1141 -3167.4315 C -359.99333 -3167.4315 -358.2741 -3165.7123 -358.2741 -3163.5915 L -358.2741 -3147.2715 C -358.2741 -3145.1507 -359.99333 -3143.4315 -362.1141 -3143.4315 L -378.4341 -3143.4315 C -380.55487 -3143.4315 -382.2741 -3145.1507 -382.2741 -3147.2715 L -382.2741 -3163.5915 C -382.2741 -3165.7123 -380.55487 -3167.4315 -378.4341 -3167.4315 Z" fill="#666"/>
        <path d="M -378.4341 -3167.4315 L -362.1141 -3167.4315 C -359.99333 -3167.4315 -358.2741 -3165.7123 -358.2741 -3163.5915 L -358.2741 -3147.2715 C -358.2741 -3145.1507 -359.99333 -3143.4315 -362.1141 -3143.4315 L -378.4341 -3143.4315 C -380.55487 -3143.4315 -382.2741 -3145.1507 -382.2741 -3147.2715 L -382.2741 -3163.5915 C -382.2741 -3165.7123 -380.55487 -3167.4315 -378.4341 -3167.4315 Z" stroke="white" stroke-linecap="round" stroke-linejoin="round" stroke-width=".25"/>
      </g>
      <g id="Graphic_11738">
        <path d="M -376.2742 -3152.232 C -376.0533 -3152.232 -375.8742 -3152.053 -375.8742 -3151.832 L -375.8742 -3149.4314 C -375.8742 -3148.7687 -375.337 -3148.2315 -374.67428 -3148.2315 L -365.87473 -3148.2315 C -365.212 -3148.2315 -364.6748 -3148.7687 -364.6748 -3149.4314 L -364.6748 -3159.431 L -367.47464 -3159.431 C -367.69555 -3159.431 -367.87462 -3159.61 -367.87462 -3159.831 L -367.87462 -3162.6307 L -374.67428 -3162.6307 C -375.337 -3162.6307 -375.8742 -3162.0935 -375.8742 -3161.4308 L -375.8742 -3159.8317 C -375.8742 -3159.6108 -376.0533 -3159.4317 -376.2742 -3159.4317 C -376.4951 -3159.4317 -376.67417 -3159.6108 -376.67417 -3159.8317 L -376.67417 -3161.4308 C -376.67417 -3162.5353 -375.7788 -3163.4307 -374.67428 -3163.4307 L -367.49703 -3163.4307 C -367.39083 -3163.4374 -367.2803 -3163.402 -367.1918 -3163.3136 L -363.992 -3160.1137 C -363.9035 -3160.0252 -363.8681 -3159.9147 -363.87483 -3159.8085 L -363.87483 -3149.4314 C -363.87483 -3148.327 -364.7702 -3147.4315 -365.87473 -3147.4315 L -374.67428 -3147.4315 C -375.7788 -3147.4315 -376.67417 -3148.327 -376.67417 -3149.4314 L -376.67417 -3151.832 C -376.67417 -3152.053 -376.4951 -3152.232 -376.2742 -3152.232 Z M -367.07467 -3162.065 L -367.07467 -3160.231 L -365.24044 -3160.231 Z M -370.0402 -3156.232 L -371.75727 -3157.949 C -371.91347 -3158.105 -371.91347 -3158.3584 -371.75727 -3158.5146 C -371.60107 -3158.6708 -371.3478 -3158.6708 -371.1916 -3158.5146 L -368.79173 -3156.1147 C -368.63553 -3155.9585 -368.63553 -3155.7053 -368.79173 -3155.549 L -371.1916 -3153.149 C -371.3478 -3152.993 -371.60107 -3152.993 -371.75727 -3153.149 C -371.91347 -3153.3054 -371.91347 -3153.5586 -371.75727 -3153.715 L -370.0402 -3155.432 L -376.2742 -3155.432 C -376.4951 -3155.432 -376.67417 -3155.611 -376.67417 -3155.832 C -376.67417 -3156.0528 -376.4951 -3156.232 -376.2742 -3156.232 Z" fill="#8eed62"/>
      </g>
    </g>
  </g>
</svg>
